actions/22/system-lock-screen.svg

<?xml version="1.0" encoding="UTF-8" standalone="no"?>
<!-- Created with Inkscape (http://www.inkscape.org/) -->

<svg
   xmlns:dc="http://purl.org/dc/elements/1.1/"
   xmlns:cc="http://creativecommons.org/ns#"
   xmlns:rdf="http://www.w3.org/1999/02/22-rdf-syntax-ns#"
   xmlns:svg="http://www.w3.org/2000/svg"
   xmlns="http://www.w3.org/2000/svg"
   xmlns:xlink="http://www.w3.org/1999/xlink"
   xmlns:inkscape="http://www.inkscape.org/namespaces/inkscape"
   version="1.0"
   width="22"
   height="22"
   id="svg2">
  <metadata
     id="metadata37">
    <rdf:RDF>
      <cc:Work
         rdf:about="">
        <dc:format>image/svg+xml</dc:format>
        <dc:type
           rdf:resource="http://purl.org/dc/dcmitype/StillImage" />
      </cc:Work>
    </rdf:RDF>
  </metadata>
  <defs
     id="defs4">
    <linearGradient
       id="linearGradient10691">
      <stop
         id="stop10693"
         style="stop-color:#000000;stop-opacity:1"
         offset="0" />
      <stop
         id="stop10695"
         style="stop-color:#000000;stop-opacity:0"
         offset="1" />
    </linearGradient>
    <radialGradient
       cx="6.702713"
       cy="73.615715"
       r="7.228416"
       fx="6.702713"
       fy="73.615715"
       id="radialGradient2541"
       xlink:href="#linearGradient10691"
       gradientUnits="userSpaceOnUse"
       gradientTransform="matrix(0.9684003,0,0,0.3458572,4.509091,-5.9605186)" />
    <linearGradient
       id="linearGradient3406">
      <stop
         id="stop3408"
         style="stop-color:#808080;stop-opacity:1"
         offset="0" />
      <stop
         id="stop3414"
         style="stop-color:#808080;stop-opacity:1"
         offset="0.30009115" />
      <stop
         id="stop3416"
         style="stop-color:#969696;stop-opacity:1"
         offset="0.4148587" />
      <stop
         id="stop3410"
         style="stop-color:#969696;stop-opacity:1"
         offset="1" />
    </linearGradient>
    <linearGradient
       x1="24.000002"
       y1="45"
       x2="24.000002"
       y2="37.974422"
       id="linearGradient2538"
       xlink:href="#linearGradient3406"
       gradientUnits="userSpaceOnUse"
       gradientTransform="matrix(0.3913044,0,0,0.4444444,1.6086948,0.7222241)" />
    <linearGradient
       id="linearGradient3418">
      <stop
         id="stop3420"
         style="stop-color:#aaaaaa;stop-opacity:1"
         offset="0" />
      <stop
         id="stop3426"
         style="stop-color:#b3b3b3;stop-opacity:1"
         offset="0.26436639" />
      <stop
         id="stop3428"
         style="stop-color:#bebebe;stop-opacity:1"
         offset="0.39481503" />
      <stop
         id="stop3422"
         style="stop-color:#b3b3b3;stop-opacity:1"
         offset="1" />
    </linearGradient>
    <linearGradient
       x1="26.870913"
       y1="45"
       x2="26.746988"
       y2="36.943203"
       id="linearGradient2536"
       xlink:href="#linearGradient3418"
       gradientUnits="userSpaceOnUse"
       gradientTransform="matrix(0.3913044,0,0,0.4444444,1.6086948,0.7222241)" />
    <linearGradient
       id="linearGradient3269">
      <stop
         id="stop3271"
         style="stop-color:#ffffff;stop-opacity:1"
         offset="0" />
      <stop
         id="stop3273"
         style="stop-color:#ffffff;stop-opacity:0"
         offset="1" />
    </linearGradient>
    <linearGradient
       x1="19.283365"
       y1="42.361061"
       x2="19.283365"
       y2="34.020142"
       id="linearGradient2533"
       xlink:href="#linearGradient3269"
       gradientUnits="userSpaceOnUse"
       gradientTransform="matrix(0.3048606,0,0,0.3768224,3.6833439,3.4923367)" />
    <linearGradient
       id="linearGradient2327">
      <stop
         id="stop2329"
         style="stop-color:#ffffff;stop-opacity:1"
         offset="0" />
      <stop
         id="stop2331"
         style="stop-color:#cccccc;stop-opacity:1"
         offset="1" />
    </linearGradient>
    <linearGradient
       x1="32.733955"
       y1="2.4802959"
       x2="32.733955"
       y2="34.718811"
       id="linearGradient2529"
       xlink:href="#linearGradient2327"
       gradientUnits="userSpaceOnUse"
       gradientTransform="matrix(0.4443186,0,0,0.4441096,0.2920051,0.2392499)" />
  </defs>
  <g
     id="layer1">
    <path
       d="m 18,19.500001 c 0,1.380712 -3.134007,2.5 -7,2.5 -3.8659933,0 -7,-1.119288 -7,-2.5 0,-1.380712 3.1340067,-2.5 7,-2.5 3.865993,0 7,1.119288 7,2.5 z"
       inkscape:connector-curvature="0"
       id="path2883"
       style="opacity:0.4;fill:url(#radialGradient2541);fill-opacity:1;fill-rule:nonzero;stroke:none;stroke-width:0.80000001;marker:none;visibility:visible;display:inline;overflow:visible" />
    <path
       d="m 7.0802222,16.503038 c 0,0 -0.5663857,2.665455 -0.5663857,2.843505 0,0.168188 -0.1274451,1.153458 0.3912359,1.153458 0.5096047,0 7.8937856,0 8.2895636,0 0.396522,0 0.269701,-1.181574 0.304059,-1.275422 C 15.531927,19.13381 14.919699,16.5 14.919699,16.5 l -7.8394768,0.003 z"
       inkscape:connector-curvature="0"
       id="path2170"
       style="fill:url(#linearGradient2536);fill-opacity:1;fill-rule:evenodd;stroke:url(#linearGradient2538);stroke-width:0.99999982;stroke-linecap:round;stroke-linejoin:round;stroke-miterlimit:4;stroke-opacity:1;stroke-dasharray:none" />
    <path
       d="m 7.9513929,16.502437 c 0,0 -0.3369566,2.241113 -0.4141682,2.589807 C 7.460538,19.438563 7.4775634,19.5 7.8289386,19.5 c 0.3442817,0 6.1057424,0 6.3841404,0 0.285399,0 0.316551,-0.122682 0.26834,-0.411677 C 14.434274,18.805736 14.048605,16.5 14.048605,16.5 l -6.0972121,0.0024 z"
       inkscape:connector-curvature="0"
       id="path2186"
       style="opacity:0.4;fill:none;stroke:url(#linearGradient2533);stroke-width:0.99999976;stroke-linecap:round;stroke-linejoin:round;stroke-miterlimit:4;stroke-opacity:1;stroke-dasharray:none" />
    <path
       d="m 0.78630833,2.0059375e-4 c 6.80912837,0 13.61825767,0 20.42738367,0 C 21.972798,-0.00602565 22.037658,0.82457405 21.98687,1.3976596 c 0,4.9369872 -1e-6,9.8739734 -1e-6,14.8109614 0.0062,0.764001 -0.819091,0.829279 -1.388504,0.778164 -6.604021,0 -13.208038,0 -19.81205667,0 -0.759105,0.0062 -0.82396673,-0.824374 -0.77317762,-1.397459 0,-4.936988 0,-9.8739752 0,-14.81096249 C 0.00309468,0.36008067 0.37056442,-0.00986585 0.78630833,2.0059375e-4 z"
       inkscape:connector-curvature="0"
       id="rect3170"
       style="fill:#1a1a1a;fill-opacity:1;fill-rule:evenodd;stroke:none;stroke-width:1.00396311;marker:none;visibility:visible;display:inline;overflow:visible;enable-background:accumulate" />
    <path
       d="m 1.375,1.3421054 c 6.4166676,0 12.833334,0 19.250001,0 0,4.7719296 0,9.5438596 0,14.3157896 -6.416667,0 -12.8333334,0 -19.250001,0 0,-4.77193 0,-9.54386 0,-14.3157896 z"
       inkscape:connector-curvature="0"
       id="rect4151"
       style="fill:url(#linearGradient2529);fill-opacity:1;fill-rule:evenodd;stroke:none;stroke-width:1.00280869;marker:none;visibility:visible;display:inline;overflow:visible;enable-background:accumulate" />
    <path
       d="M 10.750003,3.0014789 C 9.0361415,3.0565367 7.9000035,3.9015688 7.9000035,5.6445148 l 0,1.365887 -0.385718,0 c -0.283009,0 -0.514285,0.1998764 -0.514285,0.4501874 l 0,5.0892228 c 0,0.250312 0.231276,0.450189 0.514285,0.450188 l 6.9785695,0 c 0.283014,0 0.507146,-0.199876 0.507146,-0.450188 l 0,-5.0892228 c 0,-0.250311 -0.224132,-0.4501874 -0.507146,-0.4501874 l -0.392858,0 0.0071,-1.336842 c 0,-1.8501764 -1.233343,-2.6492454 -3.099998,-2.6720809 -0.08703,-0.00107 -0.172853,-0.00271 -0.257141,0 z M 10.92143,4.170513 c 0.03151,-7.277e-4 0.06741,0 0.1,0 2.071092,0 1.912273,1.5104191 1.942856,1.960495 l 0,0.8793938 -3.9000005,0 0,-0.872133 C 9.0569335,5.6917667 8.9359975,4.2164398 10.92143,4.170513 z"
       inkscape:connector-curvature="0"
       id="path2086"
       style="opacity:0.69886361;fill:#888a85;fill-opacity:1;fill-rule:nonzero;stroke:none;stroke-width:1;marker:none;visibility:visible;display:block;overflow:visible" />
  </g>
</svg>

<?xml version="1.0" encoding="UTF-8" standalone="no"?>
<!-- Created with Inkscape (http://www.inkscape.org/) -->
<svg
   xmlns:svg="http://www.w3.org/2000/svg"
   xmlns="http://www.w3.org/2000/svg"
   xmlns:xlink="http://www.w3.org/1999/xlink"
   version="1.0"
   width="22"
   height="22"
   id="svg2">
  <defs
     id="defs4">
    <linearGradient
       id="linearGradient10691">
      <stop
         id="stop10693"
         style="stop-color:#000000;stop-opacity:1"
         offset="0" />
      <stop
         id="stop10695"
         style="stop-color:#000000;stop-opacity:0"
         offset="1" />
    </linearGradient>
    <radialGradient
       cx="6.702713"
       cy="73.615715"
       r="7.228416"
       fx="6.702713"
       fy="73.615715"
       id="radialGradient2541"
       xlink:href="#linearGradient10691"
       gradientUnits="userSpaceOnUse"
       gradientTransform="matrix(0.9684003,0,0,0.3458572,4.509091,-5.9605186)" />
    <linearGradient
       id="linearGradient3406">
      <stop
         id="stop3408"
         style="stop-color:#808080;stop-opacity:1"
         offset="0" />
      <stop
         id="stop3414"
         style="stop-color:#808080;stop-opacity:1"
         offset="0.30009115" />
      <stop
         id="stop3416"
         style="stop-color:#969696;stop-opacity:1"
         offset="0.4148587" />
      <stop
         id="stop3410"
         style="stop-color:#969696;stop-opacity:1"
         offset="1" />
    </linearGradient>
    <linearGradient
       x1="24.000002"
       y1="45"
       x2="24.000002"
       y2="37.974422"
       id="linearGradient2538"
       xlink:href="#linearGradient3406"
       gradientUnits="userSpaceOnUse"
       gradientTransform="matrix(0.3913044,0,0,0.4444444,1.6086948,0.7222241)" />
    <linearGradient
       id="linearGradient3418">
      <stop
         id="stop3420"
         style="stop-color:#aaaaaa;stop-opacity:1"
         offset="0" />
      <stop
         id="stop3426"
         style="stop-color:#b3b3b3;stop-opacity:1"
         offset="0.26436639" />
      <stop
         id="stop3428"
         style="stop-color:#bebebe;stop-opacity:1"
         offset="0.39481503" />
      <stop
         id="stop3422"
         style="stop-color:#b3b3b3;stop-opacity:1"
         offset="1" />
    </linearGradient>
    <linearGradient
       x1="26.870913"
       y1="45"
       x2="26.746988"
       y2="36.943203"
       id="linearGradient2536"
       xlink:href="#linearGradient3418"
       gradientUnits="userSpaceOnUse"
       gradientTransform="matrix(0.3913044,0,0,0.4444444,1.6086948,0.7222241)" />
    <linearGradient
       id="linearGradient3269">
      <stop
         id="stop3271"
         style="stop-color:#ffffff;stop-opacity:1"
         offset="0" />
      <stop
         id="stop3273"
         style="stop-color:#ffffff;stop-opacity:0"
         offset="1" />
    </linearGradient>
    <linearGradient
       x1="19.283365"
       y1="42.361061"
       x2="19.283365"
       y2="34.020142"
       id="linearGradient2533"
       xlink:href="#linearGradient3269"
       gradientUnits="userSpaceOnUse"
       gradientTransform="matrix(0.3048606,0,0,0.3768224,3.6833439,3.4923367)" />
    <linearGradient
       id="linearGradient2327">
      <stop
         id="stop2329"
         style="stop-color:#ffffff;stop-opacity:1"
         offset="0" />
      <stop
         id="stop2331"
         style="stop-color:#cccccc;stop-opacity:1"
         offset="1" />
    </linearGradient>
    <linearGradient
       x1="32.733955"
       y1="2.4802959"
       x2="32.733955"
       y2="34.718811"
       id="linearGradient2529"
       xlink:href="#linearGradient2327"
       gradientUnits="userSpaceOnUse"
       gradientTransform="matrix(0.4443186,0,0,0.4441096,0.2920051,0.2392499)" />
  </defs>
  <g
     id="layer1">
    <path
       d="M 18,19.500001 C 18,20.880713 14.865993,22.000001 11,22.000001 C 7.1340067,22.000001 4,20.880713 4,19.500001 C 4,18.119289 7.1340067,17.000001 11,17.000001 C 14.865993,17.000001 18,18.119289 18,19.500001 z"
       id="path2883"
       style="opacity:0.4;fill:url(#radialGradient2541);fill-opacity:1;fill-rule:nonzero;stroke:none;stroke-width:0.80000001;stroke-linecap:butt;stroke-linejoin:miter;marker:none;marker-start:none;marker-mid:none;marker-end:none;stroke-miterlimit:4;stroke-dashoffset:0;stroke-opacity:1;visibility:visible;display:inline;overflow:visible" />
    <path
       d="M 7.0802222,16.503038 C 7.0802222,16.503038 6.5138365,19.168493 6.5138365,19.346543 C 6.5138365,19.514731 6.3863914,20.500001 6.9050724,20.500001 C 7.4146771,20.500001 14.798858,20.500001 15.194636,20.500001 C 15.591158,20.500001 15.464337,19.318427 15.498695,19.224579 C 15.531927,19.13381 14.919699,16.5 14.919699,16.5 L 7.0802222,16.503038 z"
       id="path2170"
       style="fill:url(#linearGradient2536);fill-opacity:1;fill-rule:evenodd;stroke:url(#linearGradient2538);stroke-width:0.99999982;stroke-linecap:round;stroke-linejoin:round;stroke-miterlimit:4;stroke-dasharray:none;stroke-opacity:1" />
    <path
       d="M 7.9513929,16.502437 C 7.9513929,16.502437 7.6144363,18.74355 7.5372247,19.092244 C 7.460538,19.438563 7.4775634,19.5 7.8289386,19.5 C 8.1732203,19.5 13.934681,19.5 14.213079,19.5 C 14.498478,19.5 14.52963,19.377318 14.481419,19.088323 C 14.434274,18.805736 14.048605,16.5 14.048605,16.5 L 7.9513929,16.502437 z"
       id="path2186"
       style="opacity:0.4;fill:none;fill-opacity:1;fill-rule:evenodd;stroke:url(#linearGradient2533);stroke-width:0.99999976;stroke-linecap:round;stroke-linejoin:round;stroke-miterlimit:4;stroke-dasharray:none;stroke-opacity:1" />
    <path
       d="M 0.78630833,0.00020059375 C 7.5954367,0.00020059375 14.404566,0.00020059375 21.213692,0.00020059375 C 21.972798,-0.0060256521 22.037658,0.82457405 21.98687,1.3976596 C 21.98687,6.3346468 21.986869,11.271633 21.986869,16.208621 C 21.993058,16.972622 21.167778,17.0379 20.598365,16.986785 C 13.994344,16.986785 7.390327,16.986785 0.78630833,16.986785 C 0.027203332,16.99301 -0.037658401,16.162411 0.013130713,15.589326 C 0.013130713,10.652338 0.013130713,5.7153508 0.013130713,0.77836351 C 0.0030946844,0.36008067 0.37056442,-0.0098658495 0.78630833,0.00020059375 z"
       id="rect3170"
       style="fill:#1a1a1a;fill-opacity:1;fill-rule:evenodd;stroke:none;stroke-width:1.00396311;stroke-linecap:round;stroke-linejoin:round;marker:none;marker-start:none;marker-mid:none;marker-end:none;stroke-miterlimit:4;stroke-dasharray:none;stroke-dashoffset:0;stroke-opacity:1;visibility:visible;display:inline;overflow:visible;enable-background:accumulate" />
    <path
       d="M 1.375,1.3421054 C 7.7916676,1.3421054 14.208334,1.3421054 20.625001,1.3421054 C 20.625001,6.114035 20.625001,10.885965 20.625001,15.657895 C 14.208334,15.657895 7.7916676,15.657895 1.375,15.657895 C 1.375,10.885965 1.375,6.114035 1.375,1.3421054 z"
       id="rect4151"
       style="fill:url(#linearGradient2529);fill-opacity:1;fill-rule:evenodd;stroke:none;stroke-width:1.00280869;stroke-linecap:round;stroke-linejoin:round;marker:none;marker-start:none;marker-mid:none;marker-end:none;stroke-miterlimit:4;stroke-dasharray:none;stroke-dashoffset:0;stroke-opacity:1;visibility:visible;display:inline;overflow:visible;enable-background:accumulate" />
    <path
       d="M 10.750003,3.0014789 C 9.0361415,3.0565367 7.9000035,3.9015688 7.9000035,5.6445148 L 7.9000035,7.0104018 L 7.5142855,7.0104018 C 7.2312765,7.0104018 7.0000005,7.2102782 7.0000005,7.4605892 L 7.0000005,12.549812 C 7.0000005,12.800124 7.2312765,13.000001 7.5142855,13 L 14.492855,13 C 14.775869,13 15.000001,12.800124 15.000001,12.549812 L 15.000001,7.4605892 C 15.000001,7.2102782 14.775869,7.0104018 14.492855,7.0104018 L 14.099997,7.0104018 L 14.107142,5.6735598 C 14.107142,3.8233834 12.873799,3.0243144 11.007144,3.0014789 C 10.920117,3.0004078 10.834291,2.99877 10.750003,3.0014789 z M 10.92143,4.170513 C 10.952945,4.1697853 10.988843,4.170513 11.02143,4.170513 C 13.092522,4.170513 12.933703,5.6809321 12.964286,6.131008 L 12.964286,7.0104018 L 9.0642855,7.0104018 L 9.0642855,6.1382688 C 9.0569335,5.6917667 8.9359975,4.2164398 10.92143,4.170513 z"
       id="path2086"
       style="opacity:0.69886361;fill:#888a85;fill-opacity:1;fill-rule:nonzero;stroke:none;stroke-width:1;stroke-linecap:butt;stroke-linejoin:miter;marker:none;marker-start:none;marker-mid:none;marker-end:none;stroke-miterlimit:4;stroke-dasharray:none;stroke-dashoffset:0;stroke-opacity:1;visibility:visible;display:block;overflow:visible" />
  </g>
</svg>
